X:15
T:Auld Lang Syne. HS.15
M:2/4
L:1/8
Q:1/4=140
S:Henry Stables MS,Cumbria,late19thC
R:.air
O:Walthwaite,nr.Ambleside.
A:England
N:This is marked with ups/downs very clearly as an exercize in violin
N:bowing technique..CGP
Z:vmp.Chris Partington
K:D
“^u”A|”^d”d>d “^u”df|”^d”e>d “^u”ef|”^d”d>d “^u”fa|”^d”b3″^u”b|\
“^d”a>f “^u”fd|”^d”e>d “^u”ef|”^d”d>B “^u”BA|”^d”d3||!
“^u”b|”^d”a>f “^u”fd|”^d”e>d “^u”ef|”^d”a>f “^u”fa|”^d”b3″^u”b|\
“^d”a>f “^u”fd|”^d”e>d “^u”ef|”^d”d>B “^u”BA|”^d”d3|]

